X: 10441
M: C|
L: 1/8
K: Bb
|: (de) |\
(fBAB) (gBAB) | babg  gfed  | g^fgd edeG | cdec BAGF |\
 Bcde  (fBAB) | gBaB b(BAB) | GeFd  EcDB | dcBA B2 :|


